packages/core/src/svgs/nap.svg

<svg width="24" height="24" viewBox="0 0 24 24" fill="none" xmlns="http://www.w3.org/2000/svg">
<g clip-path="url(#clip0_31_14595)">
<path d="M0 0H24V24H0V0Z" fill="#F0F3FA"/>
<path d="M11.9999 4.71436C13.9322 4.71436 15.7854 5.48196 17.1517 6.84829C18.5181 8.21463 19.2857 10.0678 19.2857 12.0001C19.2857 13.9324 18.5181 15.7855 17.1517 17.1518C15.7854 18.5182 13.9322 19.2858 11.9999 19.2858C10.0677 19.2858 8.21451 18.5182 6.84817 17.1518C5.48183 15.7855 4.71423 13.9324 4.71423 12.0001C4.71423 10.0678 5.48183 8.21463 6.84817 6.84829C8.21451 5.48196 10.0677 4.71436 11.9999 4.71436Z" fill="#0133A2"/>
<path d="M12 6.85693C12.6757 6.85722 13.3447 6.99057 13.9688 7.24939C14.5929 7.50821 15.1599 7.88743 15.6375 8.36538C16.115 8.84334 16.4938 9.41068 16.7521 10.035C17.0104 10.6593 17.1432 11.3284 17.1429 12.0041C17.1426 12.6797 17.0093 13.3487 16.7504 13.9728C16.4916 14.5969 16.1124 15.164 15.6345 15.6415C15.1565 16.1191 14.5892 16.4978 13.9648 16.7561C13.3405 17.0144 12.6714 17.1472 11.9958 17.1469C10.6312 17.1464 9.3228 16.6038 8.35833 15.6385C7.39385 14.6732 6.85234 13.3643 6.85291 11.9998C6.85347 10.6353 7.39608 9.32683 8.36136 8.36235C9.32663 7.39788 10.6355 6.85637 12 6.85693Z" fill="#03A7E4"/>
<path d="M12 6.42871C12.732 6.42899 13.4567 6.57344 14.1328 6.85379C14.8089 7.13415 15.4232 7.54494 15.9405 8.06269C16.4579 8.58044 16.8682 9.19502 17.148 9.87135C17.4279 10.5477 17.5717 11.2725 17.5715 12.0044C17.5712 12.7364 17.4267 13.4611 17.1464 14.1372C16.866 14.8133 16.4552 15.4276 15.9375 15.9449C15.4197 16.4623 14.8051 16.8726 14.1288 17.1524C13.4525 17.4322 12.7277 17.5761 11.9957 17.5759C10.5175 17.5753 9.10011 16.9875 8.05526 15.9419C7.01042 14.8962 6.42375 13.4783 6.42432 12.0001C6.42489 10.5219 7.01264 9.1045 8.05829 8.05966C9.10394 7.01481 10.5218 6.42814 12 6.42871ZM17.1429 12.0001C17.1426 11.3245 17.0092 10.6555 16.7504 10.0314C16.4916 9.40728 16.1124 8.84026 15.6344 8.3627C15.1565 7.88514 14.5891 7.5064 13.9648 7.2481C13.3405 6.9898 12.6714 6.857 11.9957 6.85728C10.6312 6.85785 9.32278 7.40046 8.35831 8.36573C7.39384 9.33101 6.85232 10.6399 6.85289 12.0044C6.85346 13.369 7.39606 14.6774 8.36134 15.6419C9.32661 16.6063 10.6355 17.1479 12 17.1473C13.3646 17.1467 14.673 16.6041 15.6375 15.6388C16.6019 14.6736 17.1435 13.3647 17.1429 12.0001Z" fill="#F0F3FA"/>
<path d="M9 9H10.8557L14.5714 13.0843V15H14.34L9.19714 9.42429H9V9Z" fill="#F0F3FA"/>
<path d="M9.42857 9.42857V14.1429C9.42857 14.1429 9.42857 14.5714 9 14.5714V15H10.2857V14.5714C10.2857 14.5714 9.85714 14.55 9.85714 14.1429V9.85714L9.42857 9.42857ZM14.5714 14.1429V9.85714C14.5714 9.85714 14.5714 9.42857 15 9.42857V9H13.7143V9.42857C13.7143 9.42857 14.1429 9.42857 14.1429 9.85714V13.7143L14.5714 14.1429Z" fill="#F0F3FA"/>
</g>
<defs>
<clipPath id="clip0_31_14595">
<rect width="24" height="24" fill="white"/>
</clipPath>
</defs>
</svg>

<svg xmlns="http://www.w3.org/2000/svg" width="24" height="24" fill="none" viewBox="0 0 24 24"><g clip-path="url(#a)"><path fill="#F0F3FA" d="M0 0h24v24H0z"/><path fill="#0133A2" d="M12 4.714a7.286 7.286 0 1 1 0 14.572 7.286 7.286 0 0 1 0-14.572"/><path fill="#03A7E4" d="M12 6.857a5.145 5.145 0 1 1-.004 10.29A5.145 5.145 0 0 1 12 6.857"/><path fill="#F0F3FA" d="M12 6.429a5.574 5.574 0 1 1-.004 11.147A5.574 5.574 0 0 1 12 6.429M17.143 12a5.146 5.146 0 1 0-10.292.005A5.146 5.146 0 0 0 17.143 12"/><path fill="#F0F3FA" d="M9 9h1.856l3.715 4.084V15h-.231L9.197 9.424H9z"/><path fill="#F0F3FA" d="M9.429 9.429v4.714s0 .428-.429.428V15h1.286v-.429s-.429-.021-.429-.428V9.857zm5.142 4.714V9.857s0-.428.429-.428V9h-1.286v.429s.429 0 .429.428v3.857z"/></g><defs><clipPath id="a"><path fill="#fff" d="M0 0h24v24H0z"/></clipPath></defs></svg>
